src/public/img/icons/github.black.svg

<svg width="20" height="20" viewBox="0 0 20 20" fill="none" xmlns="http://www.w3.org/2000/svg">
<path fill-rule="evenodd" clip-rule="evenodd" d="M9.99926 2C5.58218 2 2 5.67234 2 10.2027C2 13.8267 4.29203 16.9008 7.47101 17.9855C7.87127 18.061 8.01713 17.8077 8.01713 17.5902C8.01713 17.3958 8.01025 16.8797 8.00632 16.1954C5.78109 16.6909 5.31158 15.0956 5.31158 15.0956C4.94767 14.148 4.42316 13.8957 4.42316 13.8957C3.6968 13.3871 4.47816 13.3972 4.47816 13.3972C5.28113 13.4551 5.70349 14.2426 5.70349 14.2426C6.41708 15.4959 7.57611 15.1339 8.03186 14.9239C8.10455 14.3942 8.31131 14.0327 8.53967 13.8277C6.76331 13.6208 4.89561 12.9168 4.89561 9.77369C4.89561 8.87839 5.20746 8.14574 5.71921 7.57271C5.6367 7.36525 5.36217 6.53088 5.79778 5.40193C5.79778 5.40193 6.46914 5.18138 7.99748 6.24285C8.63544 6.06057 9.32005 5.96993 10.0002 5.96641C10.6799 5.96993 11.3641 6.06057 12.003 6.24285C13.5304 5.18138 14.2007 5.40193 14.2007 5.40193C14.6373 6.53088 14.3628 7.36525 14.2808 7.57271C14.7935 8.14574 15.1029 8.87839 15.1029 9.77369C15.1029 12.9249 13.2323 13.6182 11.4505 13.8212C11.7373 14.0744 11.9932 14.575 11.9932 15.3404C11.9932 16.4366 11.9834 17.3213 11.9834 17.5902C11.9834 17.8097 12.1278 18.065 12.5334 17.985C15.7099 16.8978 18 13.8257 18 10.2027C18 5.67234 14.4178 2 9.99926 2Z" fill="#111A2C"/>
</svg>

<svg xmlns="http://www.w3.org/2000/svg" width="20" height="20" fill="none">
  <path fill="#111A2C" fill-rule="evenodd" d="M10 2c-4.418 0-8 3.672-8 8.203 0 3.624 2.292 6.698 5.471 7.782.4.076.546-.177.546-.395 0-.194-.007-.71-.01-1.395-2.226.496-2.695-1.1-2.695-1.1-.364-.947-.889-1.2-.889-1.2-.726-.508.055-.498.055-.498.803.058 1.225.846 1.225.846.714 1.253 1.873.89 2.329.68.073-.529.28-.89.508-1.095-1.777-.207-3.644-.911-3.644-4.054 0-.896.311-1.628.823-2.201-.082-.208-.357-1.042.079-2.171 0 0 .671-.22 2.2.84A7.485 7.485 0 0 1 10 5.967c.68.004 1.364.095 2.003.277 1.527-1.062 2.198-.841 2.198-.841.436 1.129.162 1.963.08 2.17.512.574.822 1.306.822 2.202 0 3.15-1.87 3.844-3.652 4.047.286.253.542.754.542 1.52 0 1.096-.01 1.98-.01 2.25 0 .219.145.474.55.394C15.71 16.898 18 13.825 18 10.203 18 5.673 14.418 2 10 2Z" clip-rule="evenodd"/>
</svg>
